X:1
T:Song of the Books
L:1/8
Q:1/4=80
M:4/4
K:D
B{^c}B | [M:4/4] E2   EF G3    A | B<e e4 ef      | e2{f} ed B3   A    | B>c  d6          |
         e3      E    E3 E/F/    | G3  F  G/A/ B3 | A2    F  E3   D2   | E/E/ E6 B       :|
         e2      e/f/ e3 de/f/   | g3  f  e>d  B2 | .AB/  B4 z3/2 B/c/ | d3   c  d3 c/d/  |  e4 d B2 A | G2 .AB/ B3 B/B |
         E2      EF   G3 A       | B<e e4 ef      | e2{f} ed B3   A    | B>c  d6          |
         e3      E    E3 E/F/    | G3  F  G/A/ B3 | A2    F  E3   D2   | E/E/ E6 z        |]

